images/rules_ico_4.svg

<svg width="48" height="48" viewBox="0 0 48 48" fill="none" xmlns="http://www.w3.org/2000/svg">
<rect width="48" height="48" rx="12" fill="#222222"/>
<path fill-rule="evenodd" clip-rule="evenodd" d="M12.5786 32.9999H35.4209C36.2981 32.9999 36.9998 32.3103 36.9998 31.4482L37 16.5517C37 15.6896 36.2983 15 35.4211 15H12.5789C11.7017 15 11 15.6896 11 16.5517V31.4827C11 32.3103 11.7017 33 12.5789 33L12.5786 32.9999ZM12.4032 16.5516C12.4032 16.4482 12.4734 16.3791 12.5786 16.3791H35.4209C35.5261 16.3791 35.5964 16.4482 35.5964 16.5516V31.4826C35.5964 31.5861 35.5261 31.6551 35.4209 31.6551H12.5786C12.4734 31.6551 12.4032 31.5861 12.4032 31.4826V16.5516ZM23.8418 30.2064H32.5436C32.9998 30.2064 33.4208 29.9996 33.7365 29.6546C34.0172 29.3097 34.1575 28.8616 34.0522 28.4476C33.6662 26.482 32.3329 24.8959 30.5434 24.1373C31.2451 23.5167 31.7013 22.5856 31.7013 21.5855C31.7013 19.6889 30.1224 18.1372 28.1925 18.1372C26.2626 18.1372 24.6838 19.6889 24.6838 21.5855C24.6838 22.5854 25.14 23.5165 25.8417 24.1373C24.0522 24.8959 22.7188 26.482 22.3329 28.4476C22.2626 28.896 22.3679 29.3441 22.6486 29.6546C22.9646 29.9996 23.3856 30.2064 23.8418 30.2064ZM26.0874 21.5857C26.0874 20.4478 27.0348 19.5166 28.1928 19.5166C29.3507 19.5166 30.2982 20.4477 30.2982 21.5857C30.2982 22.7237 29.3507 23.6548 28.1928 23.6548C27.0346 23.6546 26.0874 22.7237 26.0874 21.5857ZM28.1925 25.034C30.4031 25.034 32.2628 26.5857 32.6838 28.6891C32.6838 28.7235 32.6838 28.7581 32.6488 28.7925C32.6488 28.8269 32.6138 28.8269 32.5435 28.8269H23.8417C23.7715 28.8269 23.7365 28.7925 23.7365 28.7925C23.7015 28.7581 23.7015 28.7235 23.7015 28.6891C24.1222 26.5857 25.9821 25.034 28.1925 25.034ZM20.4732 20.5511H15.5611C15.1751 20.5511 14.8591 20.2408 14.8594 19.8615C14.8594 19.4822 15.1751 19.1719 15.5611 19.1719H20.4732C20.8592 19.1719 21.1749 19.4821 21.1749 19.8615C21.1749 20.2408 20.8592 20.5511 20.4732 20.5511ZM15.5611 24.3443H20.4732C20.8592 24.3443 21.1749 24.034 21.1749 23.6547C21.1749 23.2754 20.8592 22.9651 20.4732 22.9651L15.5611 22.9648C15.1751 22.9648 14.8594 23.2751 14.8594 23.6544C14.8591 24.0338 15.1751 24.3443 15.5611 24.3443ZM20.4732 28.138H15.5611C15.1751 28.138 14.8591 27.8277 14.8594 27.4484C14.8594 27.0691 15.1751 26.7588 15.5611 26.7588H20.4732C20.8592 26.7588 21.1749 27.0691 21.1749 27.4484C21.1749 27.8277 20.8592 28.138 20.4732 28.138Z" fill="white"/>
</svg>

<svg width="48" height="48" fill="none" xmlns="http://www.w3.org/2000/svg"><rect width="48" height="48" rx="12" fill="#222"/><path fill-rule="evenodd" clip-rule="evenodd" d="M12.579 33H35.42a1.56 1.56 0 001.579-1.552V16.552A1.558 1.558 0 0035.421 15H12.58a1.56 1.56 0 00-1.579 1.552v14.93c0 .828.702 1.518 1.579 1.518zm-.176-16.448c0-.104.07-.173.176-.173H35.42c.105 0 .175.07.175.173v14.93c0 .104-.07.173-.175.173H12.579c-.106 0-.176-.069-.176-.172V16.552zm11.439 13.654h8.702c.456 0 .877-.206 1.193-.551.28-.345.42-.793.315-1.207a5.911 5.911 0 00-3.509-4.31 3.438 3.438 0 001.158-2.553c0-1.896-1.579-3.448-3.509-3.448s-3.508 1.552-3.508 3.448c0 1 .456 1.931 1.158 2.552a5.911 5.911 0 00-3.51 4.31c-.07.449.036.897.317 1.208.316.345.737.551 1.193.551zm2.245-8.62c0-1.138.948-2.07 2.106-2.07s2.105.932 2.105 2.07-.947 2.069-2.105 2.069-2.106-.931-2.106-2.07zm2.105 3.448a4.567 4.567 0 014.492 3.655c0 .035 0 .07-.035.104 0 .034-.035.034-.105.034h-8.702a.153.153 0 01-.105-.035c-.035-.034-.035-.069-.035-.103a4.565 4.565 0 014.49-3.655zm-7.719-4.483h-4.912a.698.698 0 01-.702-.69c0-.379.316-.69.702-.69h4.912c.386 0 .702.311.702.69 0 .38-.316.69-.702.69zm-4.912 3.793h4.912c.386 0 .702-.31.702-.69a.698.698 0 00-.702-.689h-4.912a.698.698 0 00-.702.69c0 .379.316.69.702.69zm4.912 3.794h-4.912a.698.698 0 01-.702-.69c0-.379.316-.69.702-.69h4.912c.386 0 .702.311.702.69 0 .38-.316.69-.702.69z" fill="#fff"/></svg>
